X: 0961
T: DUKE OF YORK'S MARCH
B: Oliver Ditson "The Boston Collection of Instrumental Music" 1910 p.96 #1
F: http://conquest.imslp.info/files/imglnks/usimg/8/8f/IMSLP175643-PMLP309456-bostoncollection00bost_bw.pdf
%: 2012 John Chambers <jc:trillian.mit.edu>
M: 4/4
L: 1/8
K: D
|:\
D2D>D F2F>F | A>FA>F D2A>A |\
d>Ad>A dAFD | A2A>A A2z2 |\
a3f d2d>f | e2e>g fefg |\
a3g fdgf | e2e>e e2 :|
|:\
A2A>A Aceg | A2A>A Adfa |\
geee fddd | bagf f2e2 |\
d3f/e/ dAB=c | cBBB B2c/d/e/f/ |
g2f2 e2d2 | c2e>e e2z2 |\
D2D>D F2F>F | A>FA>F D2zg |\
faaf gedc | d2d>d d2z2 H:|
[K:A] |:\
A3c BABG | A2c2 A2c2 |\
c3e dcdB | c2e2 c2e2 |\
e3a a3e | f3g bagf |\
e2ae eddc | (c4 B2)z2 :|
|:\
B3c dcdB | c2e2 a2c'2 | B3c dcdB | c2A>A A2z2 |\
f3g bagf | e2a2 a2c'2 | b2a2 b2g2 | a3a>a a2"^da Capo"z2 :|

%%sep 1 1 500
%%sep 1 1 500
